brandFactory_export/3.Masa/Puzzle _3Masa.svg

<?xml version="1.0" encoding="UTF-8"?>
<svg width="24px" height="24px" viewBox="0 0 24 24" version="1.1" xmlns="http://www.w3.org/2000/svg" xmlns:xlink="http://www.w3.org/1999/xlink">
    <title>3.Masa/Puzzle _3Masa</title>
    <g id="Symbols" stroke="none" stroke-width="1" fill="none" fill-rule="evenodd">
        <g id="3.Masa/Puzzle-_3Masa" fill="#5CB615" fill-rule="nonzero">
            <path d="M16.8268908,23.6453782 L1.74453782,23.6453782 C0.783193277,23.6453782 0,22.8420168 0,21.8571429 L0,18.4420168 C0,18.2235294 0.0907563025,18.0184874 0.248739496,17.8705882 C0.406722689,17.7260504 0.61512605,17.6554622 0.830252101,17.6857143 C0.974789916,17.702521 1.09915966,17.712605 1.18655462,17.7159664 L1.2302521,17.7159664 C1.29411765,17.7159664 1.36470588,17.7159664 1.42521008,17.7092437 C1.64033613,17.7058824 2.02016807,17.6890756 2.45378151,17.5411765 C3.64369748,17.1613445 4.24201681,16.2235294 4.24201681,14.7445378 C4.24201681,13.2621849 3.64705882,12.3210084 2.46722689,11.9512605 C2.00336134,11.7865546 1.59327731,11.7697479 1.45882353,11.7630252 L1.1394958,11.7630252 C1.07226891,11.7663866 0.957983193,11.7697479 0.820168067,11.7865546 C0.601680672,11.810084 0.4,11.7394958 0.245378151,11.5983193 C0.087394958,11.4537815 0,11.2487395 0,11.0302521 L0,7.98151261 C0,6.99327731 0.783193277,6.19327731 1.74453782,6.19327731 L4.93109244,6.19327731 C4.90756303,5.96470588 4.89411765,5.72941176 4.89411765,5.48739496 C4.89411765,2.22352941 7.05882353,1.03361345 9.08235294,1.00672269 L9.43193277,1.00672269 C11.4890756,1.06386555 13.6705882,2.27394958 13.6705882,5.50756303 C13.6705882,5.74285714 13.6571429,5.97142857 13.6336134,6.18991597 L16.8302521,6.18991597 C17.7882353,6.18991597 18.5647059,6.99327731 18.5647059,7.97815126 L18.5647059,10.2672269 C18.7663866,10.2436975 18.9344538,10.2403361 19.0487395,10.2403361 L19.4084034,10.2403361 C21.4453782,10.3008403 23.6235294,11.5142857 23.6235294,14.7411765 C23.6235294,18.005042 21.3512605,19.194958 19.4084034,19.2218487 C19.3546218,19.2285714 19.210084,19.2319328 19.0689076,19.2319328 C18.9680672,19.2285714 18.789916,19.2218487 18.5647059,19.194958 L18.5647059,21.8537815 C18.5647059,22.8420168 17.7848739,23.6453782 16.8268908,23.6453782" id="Path"></path>
        </g>
    </g>
</svg>

<svg width="24" height="24" viewBox="0 0 24 24" xmlns="http://www.w3.org/2000/svg"><path d="M16.827 23.645H1.745C.783 23.645 0 22.842 0 21.857v-3.415a.78.78 0 01.249-.571.71.71 0 01.581-.185c.145.017.27.027.357.03h.043c.064 0 .135 0 .195-.007.215-.003.595-.02 1.029-.168 1.19-.38 1.788-1.317 1.788-2.796 0-1.483-.595-2.424-1.775-2.794-.464-.164-.874-.181-1.008-.188h-.32c-.067.003-.181.007-.319.024a.724.724 0 01-.575-.189A.765.765 0 010 11.03V7.982c0-.989.783-1.789 1.745-1.789H4.93a6.885 6.885 0 01-.037-.706c0-3.263 2.165-4.453 4.188-4.48h.35c2.057.057 4.239 1.267 4.239 4.5 0 .236-.014.464-.037.683h3.196c.958 0 1.735.803 1.735 1.788v2.29c.201-.024.37-.028.484-.028h.36c2.036.06 4.215 1.274 4.215 4.501 0 3.264-2.273 4.454-4.216 4.48a3.977 3.977 0 01-.843-.026v2.659c0 .988-.78 1.791-1.738 1.791" fill="#5CB615" fill-rule="nonzero"/></svg>
